X:1
T:Privo di quel che gran tempo
T:Jhan Gero
T:Source : Trium vocum cantiones---Nürnberg---J.Petreius---1541. Editor : André Vierendeels (23/09/16).
T:Notes : Original clefs : C2, C4, F4 Editorial accidentals above the staff Original note values have been halved
T:Privo di quel che gran tempo
T:©
T:©
T:©
T:©
T:©
T:©
C:Jhan Gero
Z:©
%%score [ 1 2 3 ]
L:1/8
Q:1/4=96
M:2/2
K:C
V:1 treble nm="Alto" snm="A"
V:2 treble-8 nm="Tenor" snm="T"
V:3 bass nm="Bass" snm="B"
V:1
 G4 A4- | A2 G2 A2 G2 | E2 A3 GFE | D2 E2 F4 | E4 G4 | A3 G F2 G2 | E2 c4 B2- | BA G4 F2 | G4 A4- | %9
w: Pri- vo|_ di quel che|gran tem- * * *|po mi ten-|ne, be-|at' in fest' e|in gio- *||ia, las-|
 A4 G2 G2 | E2 G2 F2 E2 | D4 G4 | F2 E2 D4 | C8- | C4 z2 C2 | D2 D2 E2 E2 | C4 z2 C2 | %17
w: * so non|so per- che to-|sto non|mo- * *|ia,|_ che|lon- tan dal bel|sol, che|
 D2 D2 E2 E2 | C2 C2 G2 A2- | AG G4 F2 | G4 E4 | E6 E2 | E4 D2 D2 | G3 F E2 D2- | DC C4 B,2 | C8 | %26
w: mi man- tien in|vi- ta con soi|_ _ ra- *|i, molt'|an- ni|pian- * go|sem- pr'in pe n'e|_ _ gua- *|i,|
 D4 D2 D2 | E2 E2 D2 D2 | E3 D C4 | B,8 | z2 D2 E2 D2 | D2 C2 D2 D2 | E2 D2 D2 C2 | D2 D2 z2 D2 | %34
w: ne spe- ro|d'ha- ver pac' o|clam con- for-|to,|men- tre mia|fort' o'a- mor', men-|tre mia fort' o'a-|mo- re, mi|
 E2 C2 E2 E2 | D3 C B,2 C2- | CB,A,G, A,4 | G,2 A,3 G, G,2- | G,2 F,2 G,4- | G,4 G4 | G2 E2 F2 G2 | %41
w: ter- ran si lon-|tan da quel splen-|* * * * do-||* * re,|_ che|deg- gio ri- ve-|
 A4 G4 | A2 G4 F2 | G3 F E2 D2- | DC C4 B,2 | C4 z2 G2 | G2 E2 F2 G2 | A4 G4 | A2 G4 F2 | %49
w: der o|viv', o mor-|* * to, o|_ _ mor- *|to, che|deg- gio ri- ve-|der o|viv', o mor-|
 G3 F E2 D2- | DC C4 B,2 | C8 |] %52
w: * * * to,|_ o mor- *|to.|
V:2
 c4 c4- | c2 c2 A2 B2 | c4 A4 | B2 c4 B2 | c4 z2 c2- | c2 d3 c B2 | c3 B A2 B2- | B2 c2 A4 | %8
w: Pri- vo|_ di quel che|gran tem-|po mi ten-|ne, be-|a- to in fest'|e in gio- *||
 G4 c4- | c2 d2 e4 | c4 A2 c2 | B2 A2 G2 d2- | dc c4 B2 | c8 | z2 G2 A2 A2 | B2 B2 G4 | %16
w: ia, las-|* so non|so per- che|to- sto non mo-||ia,|che lon- tan|dal bel sol,|
 z2 G2 A2 A2 | B2 B2 G4 | G2 A2 B2 c2- | cBAG A4 | G2 B2 c4- | c2 B2 c4 | B8 | G4 G3 F | E2 C2 D4 | %25
w: che mi man-|tien in vi-|ta con soi ra-||i, molt' an-|* * ni|pian-|go sem- pr'in|pe- n'e gua-|
 C4 G4 | B6 B2 | c2 c2 B2 B2 |"^#" A2 G4 F2 | G2 d2 e2 d2 | c2 B2 A4 | G2 G2 A2 G2 | G2 F2 E4 | %33
w: i, ne|spe- ro|d'ha- ver pac' o'al-|cun con- for-|to, men- tre mia|fort' o'a- mo-|re, men- tre mia|fort' o'a- mo-|
 D2 G2 A2 F2 | A2 A2 G2 c2- | c2 B2 G2 A2- | AG G4 F2 | G2 E3 DCB, | C4 D4- | D2 E2 C4 | c4 A2 B2 | %41
w: re, mi ter- ran|si lon- tan da|_ quel splen _|_ _ do- *|, splen- * * *|do- *|* * re,|che deg- gio|
 c2 d2 e3 d | c2 B2 A4 | G2 CD EFGE | FEDC D4 | C8 | c4 A2 B2 | c2 d2 e3 d | c2 B2 A4 | %49
w: ri- ve- der o|viv', o mor-|to, o _ _ _ _ _|_ _ _ _ mor-|to,|che deg- gio|ri- ve- der o|viv', o mor-|
 G2 CD EFGE | FEDC D4 | C8 |] %52
w: to, o _ _ _ _ _|_ _ _ _ mor-|to.|
V:3
 C,4 F,4- | F,2 E,2 F,2 G,2 | A,4 F,4 |"^#" G,2 E,2 D,4 | C,8 | z4 z2 G,2 | A,3 G, F,2 G,2 | %7
w: Pri- vo|_ di quel che|gran tem-|po mi ten-|ne,|be-|at' in fest' e'in|
 E,4 D,4 | z4 F,4- | F,4 C,4- | C,2 C,2 D,2 C,2 | D,2 D,2 E,F,G,A, | B,2 C2 G,4 | C,4 z2 C,2 | %14
w: gio- ia,|las-|* so|_ non so per-|che to- sto _ _ _|_ non mo-|ia, che|
 F,2 E,2 F,2 A,2 | G,4 z2 C,2 | F,2 E,2 F,2 A,2 | G,4 C,4- | C,2 F,2 E,2 C,2 | E,4 D,4 | %20
w: lon- tan dal bel|sol, che|mi man- tien in|vi- ta|_ con soi _|ra- i,|
 z2 G,2 A,4- | A,2 G,2 A,4 | E,2 E,2 G,3 F, | E,2 D,2 C,2 B,,2 | C,2 A,,2 G,,4 | C,8 | %26
w: molt' an-|* ni pian-|* go sem- pr'in|pe- n'e gua- *||i,,|
 G,4 G,2 G,2 | C,2 C,2 G,2 G,,2 | C,3 B,, A,,4 | G,,4 G,4 | A,2 G,2 G,2 F,2 | E,4 D,2 G,,2 | %32
w: ne spe- ro|d'ha- ver pac' co'al-|cun con- for-|to, men-|tre mia fort' o'a-|mo- * re|
 C,2 D,2 A,,2 A,,2 | B,,2 G,,2 D,2 D,2 | A,,3 B,, C,4 | z2 D,2 E,2 C,2 | E,2 E,2 D,3 C, | %37
w: mia fort' o'a- mo-|re mi ter- ram|si lon- tan|mi ter- ram|si lon- tan da|
 B,,2 C,3 B,,A,,G,, | A,,4 G,,4- |"^-natural" G,,2 G,3 F,E,D, | E,2 A,4 G,2 | F,4 E,2 C,2 | %42
w: quel splen- * * *|do- re,|_ da _ _ _|_ quel splen-|do- re, che|
 A,,2 B,,2 C,2 D,2 | E,3 D, C,2 B,,2 | A,,4 G,,4 | G,4 E,3 F, | G,2 A,4 G,2 | F,4 E,2 C,2 | %48
w: deg- gio ri- ve-|der o viv', o|mor- to,|o viv' o|mor- * *|* to, che|
 A,,2 B,,2 C,2 D,2 | E,3 D, C,2 B,,2 | A,,4 G,,4 | C,8 |] %52
w: deg- gio ri- ve|der o viv', o|mor- *|to.|

